X: 4058
T: KYE COMES HAME
R: Strathspey.
%R: strathspey
B: James Kerr "Merry Melodies" v.4 p.09 #58
Z: 2016 John Chambers <jc:trillian.mit.edu>
M: C
L: 1/8
K: D
|:\
vd>vcuB>uc (B<A) F>E | F<A A>B A2 (3(ABc) |\
d>cB>c (B<A) F>E | F<B d>c B3 A ::\
A>Bd>e f2 (e<d) | e>d e<f A2 d>e |\
f>ed>c (B<A) F>E | F<B d>c B3 A :|

%%sep 1 1 500
%%sep 1 1 500

